assets/icons/screen/_.svg

<?xml version="1.0" encoding="UTF-8" standalone="no"?>
<svg
   viewBox="0 0 24 24"
   height="24"
   id="svg7384"
   version="1.1"
   width="24"
   sodipodi:docname="screen.svg"
   inkscape:version="1.2 (1:1.2.1+202207142221+cd75a1ee6d)"
   xmlns:inkscape="http://www.inkscape.org/namespaces/inkscape"
   xmlns:sodipodi="http://sodipodi.sourceforge.net/DTD/sodipodi-0.dtd"
   xmlns="http://www.w3.org/2000/svg"
   xmlns:svg="http://www.w3.org/2000/svg"
   xmlns:rdf="http://www.w3.org/1999/02/22-rdf-syntax-ns#"
   xmlns:cc="http://creativecommons.org/ns#"
   xmlns:dc="http://purl.org/dc/elements/1.1/">
  <sodipodi:namedview
     id="namedview24"
     pagecolor="#ffffff"
     bordercolor="#666666"
     borderopacity="1.0"
     inkscape:pageshadow="2"
     inkscape:pageopacity="0.0"
     inkscape:pagecheckerboard="0"
     showgrid="false"
     inkscape:zoom="8"
     inkscape:cx="-8"
     inkscape:cy="9.3125"
     inkscape:window-width="1920"
     inkscape:window-height="1016"
     inkscape:window-x="0"
     inkscape:window-y="0"
     inkscape:window-maximized="1"
     inkscape:current-layer="svg7384"
     inkscape:snap-page="true"
     inkscape:snap-bbox="true"
     inkscape:bbox-paths="true"
     inkscape:bbox-nodes="true"
     inkscape:snap-bbox-midpoints="true"
     inkscape:snap-bbox-edge-midpoints="true"
     inkscape:object-paths="true"
     inkscape:snap-intersection-paths="true"
     inkscape:snap-smooth-nodes="true"
     inkscape:snap-midpoints="true"
     inkscape:snap-grids="true"
     inkscape:showpageshadow="2"
     inkscape:deskcolor="#d1d1d1">
    <inkscape:grid
       type="xygrid"
       id="grid829" />
    <inkscape:grid
       type="xygrid"
       id="grid886"
       dotted="true"
       spacingx="0.5"
       spacingy="0.5"
       empspacing="10" />
  </sodipodi:namedview>
  <metadata
     id="metadata20854">
    <rdf:RDF>
      <cc:Work
         rdf:about="">
        <dc:format>image/svg+xml</dc:format>
        <dc:type
           rdf:resource="http://purl.org/dc/dcmitype/StillImage" />
      </cc:Work>
    </rdf:RDF>
  </metadata>
  <defs
     id="defs7386">
    <linearGradient
       id="linearGradient5606"
       inkscape:swatch="solid">
      <stop
         id="stop5608"
         offset="0"
         style="stop-color:#000000;stop-opacity:1;" />
    </linearGradient>
    <linearGradient
       id="linearGradient4526"
       inkscape:swatch="solid">
      <stop
         id="stop4528"
         offset="0"
         style="stop-color:#ffffff;stop-opacity:1;" />
    </linearGradient>
    <linearGradient
       id="linearGradient3600-4"
       inkscape:swatch="gradient">
      <stop
         id="stop3602-7"
         offset="0"
         style="stop-color:#f4f4f4;stop-opacity:1" />
      <stop
         id="stop3604-6"
         offset="1"
         style="stop-color:#dbdbdb;stop-opacity:1" />
    </linearGradient>
  </defs>
  <path
     id="path3037"
     style="color:#000000;fill:#808080;fill-opacity:1"
     d="m 5.4550781,3 c -0.9685789,0.00898 -1.7178202,0.07327 -2.3378906,0.4453125 -0.4133803,0.2480283 -0.7199381,0.6559085 -0.8886719,1.1621094 -0.1687335,0.5062009 -0.2285156,1.1148027 -0.2285156,1.8925781 v 8 c 0,0.777775 0.059782,1.386378 0.2285156,1.892578 0.1687338,0.506202 0.4752916,0.914081 0.8886719,1.16211 0.8267606,0.496056 1.882817,0.445312 3.3828125,0.445312 h 2.5 v 1.125 c 0,1.874996 -0.6250025,1.875 -1.875,1.875 h -1.125 v 1 h 12 v -1 h -1.125 c -1.249997,0 -1.875,-4e-6 -1.875,-1.875 v -1.125 h 2.5 c 1.499996,0 2.556052,0.05074 3.382812,-0.445312 0.413382,-0.248029 0.71994,-0.655908 0.888672,-1.16211 0.168734,-0.5062 0.228516,-1.114803 0.228516,-1.892578 v -8 c 0,-0.7777754 -0.05978,-1.3863772 -0.228516,-1.8925781 -0.168732,-0.5062009 -0.47529,-0.9140811 -0.888672,-1.1621094 -0.826759,-0.4960563 -1.882816,-0.4453125 -3.382812,-0.4453125 h -11 c -0.3749988,0 -0.7220622,-0.00299 -1.0449219,0 z m 1.0449219,1 h 11 c 1.499996,0 2.44395,0.050747 2.867188,0.3046875 0.211616,0.1269708 0.342562,0.2815942 0.455078,0.6191406 0.112515,0.3375467 0.177734,0.8539518 0.177734,1.5761719 v 8 c 0,0.72222 -0.06522,1.238625 -0.177734,1.576172 -0.112516,0.337547 -0.243461,0.492172 -0.455078,0.61914 -0.356675,0.214006 -1.107167,0.280247 -2.22461,0.296876 -3.880822,0.01664 -7.761726,0.0078 -11.642578,0.0078 -0.2502382,0 -0.4621887,-0.0043 -0.6816406,-0.0078 h -0.71875 v -0.02539 c -0.6958744,-0.0365 -1.1984821,-0.110498 -1.4667969,-0.271485 -0.2116179,-0.126968 -0.3425626,-0.281593 -0.4550781,-0.61914 -0.1125156,-0.337547 -0.1777344,-0.853952 -0.1777344,-1.576172 v -3.927734 -2.6289066 -1.2089844 -0.234375 c 0,-0.7222201 0.065219,-1.2386252 0.1777344,-1.5761719 0.1125155,-0.3375464 0.2434602,-0.4921698 0.4550781,-0.6191406 0.4232357,-0.2539413 1.367192,-0.3046875 2.8671875,-0.3046875 z"
     sodipodi:nodetypes="cssssssscssccccsscssssssssscsssssssscccccssscccssss" />
</svg>

<svg height="24" width="24" xmlns="http://www.w3.org/2000/svg"><path style="color:#000;fill:gray;fill-opacity:1" d="M5.455 3c-.969.009-1.718.073-2.338.445-.413.248-.72.656-.888 1.162C2.059 5.114 2 5.722 2 6.5v8c0 .778.06 1.386.229 1.893.168.506.475.914.888 1.162C3.944 18.05 5 18 6.5 18H9v1.125C9 21 8.375 21 7.125 21H6v1h12v-1h-1.125C15.625 21 15 21 15 19.125V18h2.5c1.5 0 2.556.05 3.383-.445.413-.248.72-.656.888-1.162.17-.507.229-1.115.229-1.893v-8c0-.778-.06-1.386-.229-1.893-.168-.506-.475-.914-.888-1.162C20.056 2.95 19 3 17.5 3h-11c-.375 0-.722-.003-1.045 0zM6.5 4h11c1.5 0 2.444.05 2.867.305.212.127.343.281.455.619.113.337.178.854.178 1.576v8c0 .722-.065 1.239-.178 1.576-.112.338-.243.492-.455.62-.356.213-1.107.28-2.224.296C14.262 17.01 10.38 17 6.5 17c-.25 0-.462-.004-.682-.008H5.1v-.025c-.696-.037-1.199-.11-1.467-.272-.212-.127-.343-.281-.455-.619C3.065 15.74 3 15.222 3 14.5v-8c0-.722.065-1.239.178-1.576.112-.338.243-.492.455-.62C4.056 4.052 5 4 6.5 4z"/></svg>
